X:91
T: UNTER MEINES VATERS SEINEM FENSTER
N: F0200
O: Europa, Mitteleuropa, Deutschland, Schlesien
R: Scherz - Lied
M: 3/4
L: 1/16
K: E
G3A | B2G2B2G2B2G2 | B2e2G4
c3B | B2A2A2A2F2A2 | c3BB4
G3A | B2G2B2G2B2G2 | B2e2G4
c3B | B2A2A2A2F2A2 | c3BB2
E2G2A2 | B2A2A2A2F2A2 | c2B2B2
E2G2A2 | B2A2A2A2F2A2 | c2B2B2B2
G3A | B2G2B2G2B2G2 | B2e2G4
c3B | B2A2A2F2D2F2 | F4E4

